!!!OTL: Was batt mich ein schönes Haus (Band 1), S. 55
!!!id: P0791
**kern
*clefG2
*k[b-e-]
*g:
{8g
=1
8g
4b-
8r
8b-
4a
4g
=2
4a
8g
8f#
4g}
4r
=3
{4.dd
8ee-
4dd
4cc
=4
8dd
8cc
4cc
4b-}
4r
=5
{8b-
8cc
4.dd
8cc
4b-
=6
4dd
8g
8a
4g
4e-
=7
4f}
=8
{4b-
4b-
4cc
=9
4b-
4a
4g}
4r
==
*-
!!!minrhy: 8
!!!meters: 4/4 ]  ZZ[4
!!!cut: Was batt mich ein schönes Haus (Band 1), S. 55
!!!reg: Lothringen
!!!trd: PINCK, Louis: Verklingende Weisen, Bd 1, Metz 1928
!!!rhy1:   X_0XX_X_  X_XXX_0_
!!!rhy2: X_.XX_X_  XXX_X_0_
!!!key: P0791  08  G 4/4 ]  ZZ[4
!!!mod: ACHTTONSKALA MELODISCH MOLL OHNE 6]  AMBITUS[8
!!!kad: 13b-7b1
!!!akz: 3b221_5553b_3b551-7b_3b3b1_
!!!fot: 'a__b__c__d__
!!!for: 'a__b__c__d__
!!!fok: '\__\__^d_\__
!! PHRAS[VORWIEGEND VOLLTAKTIG]
!!!fkt: ???
!! LOTH VKL
!! PR[32] 2K[1] 2G[14] 3K[7] 3G[7] 4A[1] 4Ü[0] 5A[0] 6K[0] 6G[0]
!! 7K[0] 7G[0] 8A[0] MEHR[0] SI[31] ABS[71] SR[15] SP[15]
!! ST[22] 2k[4] 2g[28] 3k[3] 3g[0] 4d[0] 4ü[0] 5d[1] 6k[0] 6g[0]
!! 7k[0] 7g[0] 8d[0] mehr[0] si[37] dm[-6] sr[32] sp[4]
!! 1F[11] 2F[63] 3F[14] 4F[0] LF[0] 2P[5] 3P[3] 4P[0] TRI[0] DF[6] AB[76]
!! TF[0] U3K[0] U3[0] U4[0] U4Ü[0] U5[3] U6K[0] U6[0] U7K[0] U7[1]
!! N1[36] N2K[0] N2[29] N3K[0] N3[24] N4[3] N4Ü[0] N5[4] N6K[0] N6[0]
!!!n7k: 0] N7[0] O1[0] O2K[0] O2[0] O3K[0] O3[0] HÖ[0
